X: 1
T: Keep It Up
R: reel
M: 4/4
L: 1/8
K: Edor
c2|:dEBE dEBc|dEBE FDDc|dEBE GBed|1 cAdA FDDc:|2 cAdA FDDf||
gebe geef|gebe fddf|gebe gebe|cAdA FDDf|
gebe geef|gebe fddf|eb^ga f=ged|cAdA FDDc||